X: 2190
T: Auntie Em's
R: waltz
M: 3/4
K: Eminor
|:D2|E2 E2 E>F|G2 G2 G>A|B2 B2 B>e|g2 f2 e2|
d2 A2 F2|D2 F2 A2|B2 c>B A>B|A2 B>A G>F|
E2 E>^D E>F|G2 G>F G>A|B2 B>^A B>e|g2 (3fgf e2|
d2 A2 F2|D2 F2 A2|G2 F2 B2|E4:|
|:e>f|g2 b2 g2|f2 a2 f2|e2 e>B e>f|g2 f2 e2|
d2 A2 d2|f2 e2 ^d2|e2 B2 ^A2|B4 e>f|
g2 b2 g2|f2 a2 f2|e2 e>B e>f|g2 (3fgf e2|
d2 A2 F2|D2 F2 A2|1 G2 F2 B2|E4:|2 B2 c>B A>F|E4||

